X:1
T:Qual nave smarrita, dal'opera Radamisto  (1720)
T:QUAL NAVE SMARRITA
T:George Frideric Handel (1685-1759) Arranger: Ebenezer Prout (1835-1909) 
T:Nicola Francesco Haym (1678-1729) Dal'opera Radamisto (1720) 
T:Creative Commons copyright waiver (CC0 1.0 Universal)
T:Creative Commons copyright waiver (CC0 1.0 Universal)
T:Creative Commons copyright waiver (CC0 1.0 Universal)
T:Creative Commons copyright waiver (CC0 1.0 Universal)
C:Georg Friedrich Haendel (1685-1759)
Z:Nicola Francesco Haym (1678-1729)
Z:Creative Commons copyright waiver (CC0 1.0 Universal)
%%score 1 { ( 2 3 6 ) | ( 4 5 ) }
L:1/8
Q:1/4=63
M:3/4
K:G
V:1 treble nm="Voice"
V:2 treble nm="Piano"
V:3 treble 
V:6 treble 
V:4 bass 
V:5 bass 
V:1
"^Largo" z6 ||S z6 | z6 | z6 | z6 | z6 | z6[Q:1/4=59] | z6 | z2 z2 z d | (B>A) G2 z e | F2 G2 z D | %11
w: ||||||||Qual|na- * ve smar-|ri- ta trä|
 E2 D3 c | B2 A2 z d | E2 c3 A | D2 B2 x A | G2[Q:1/4=57] e3 d | ^c4 z A | (.F>G) A3 B | %18
w: sir- ti e tem-|pes- ta, Nè|lu- ce nè|por- to gli|to- glie il ti-|mor, Nè|lu- * ce nè|
 ^C2 d3 (^c/B/) | (A/B/) D (F2 E3/2) D/ | D6 | z6 | z6 | z6 | z2 z2 z A | A2 A2 z F | D2 G2 z G | %27
w: por- to gli *|to- * glie il _ ti-|mor;||||Qual|na- ve smar-|ri- ta trä|
 (GF) c3 e | c2 B2 z c | d2 =F3 F | (E/=F/G) A3 A | (AG/^F/) G3 A | (FG/A/ B2) z B | (BA/G/) A3 B | %34
w: sir- * ti e tem-|pes- ta, Nè|lu- ce nè|por- * * to gli|to- * * glie il ti-|mor, _ _ _ Nè|lu- * * ce nè|
 (GA/B/) c3 c | c2 B2 A F | (FG/F/ G3) e |[Q:1/4=56] (dG) F3 G | G4 z[Q:1/4=55] d | %39
w: por- * * to gli|to- glie il ti-|mor, _ _ _ gli|to- * glie il ti-|mor, Nè|
 (e/f/g/B/) c3 A | (Dc) B2 z B | (BA) A3 F | (DG/F/ G3) e | (dG) G2 A3/2 G/ | G6 | z6 | z6 | z6 | %48
w: lu- * * * ce, nè|por- * to gli|to- * glie il ti-|mor, _ _ _ gli|to- * glie il ti-|mor.||||
 z2 z2!fine! || B2 | (e^d) e3 B | (cB) (c2 A) F | ^D2 B3 A | (GF) E2 z e | (=fd) ^G3 e | %55
w: |Tal|io * senz' a-|i- * ta, _ fra|do- glie fu-|ne- * ste, Non|tro- * vo con-|
 (cB) c3 c | (cB) B2 (e^c) | ^A4 z F | (e^c) ^A3 F | (fd) B3 E | (dB) ^A3 B | B6!D.S.! || %62
w: for- * to al|mi- * se- ro *|cor, Non|tro- * vo con-|for- * to al|mi- * se- ro|cor.|
V:2
 z2 z2 z [GB] || (TB>A)!mf! G2 z!f! e | (.F2!mf! .G2) z D |!f! (ED)!mf! D2 z c | %4
!f! (.B2!mf! .A2) z [DG] |!f! (dA)!mp! B3 c |!mf! (cB)!mp! B3!p! (c/d/) | (dA) A2 (TB>c) | %8
 (c2 B2) z!p! d | (B>A) G2 z G | (.F2 .G2) z D | (.E2 .D2) z c | (.B2 .A2) z d | (.E2 .c2) z A | %14
 (.D2 .B2) z A | (.G2 .e2) z G | ^c2 z2 z A | (F>G) A3 B | ^C2 D3 (B | AG F2 E2) | D4 z!f! d | %21
 (B>A)!mf! G2 z [EG] |!f! (.F2!mf! .G2) z!p! D | (.E2 .D2) z c |!mp! (.B2!p! .A2) z!p! A | %25
 [DFA]2 [DFA]2 z [DFA] | [DG]2 [DG]2 z G | (GF) c2 z e | c2 [GB]2 z c | d2 =F2 z F | E2 A2 z A | %31
 (AG/F/) G3 A | (.F2 .B2) z B | (BA/G/) A3 B | (.G2 .c2) z c | c2 B2 ([EA][DF]) | %36
 (.[A,D]2 .[DG]2) z [CEG] | G2 (F3 G) | G4 z A | e2 c2 z A | [DAc]2 [DGB]2 z [DGB] | (BA) A2 z A | %42
 A2 G2 z e | d2 G2 A>G | G4 z!f! [Bg] | (.[FBf]>.[FB])!mf! [EA]3!f! .[FAe] | %46
 (.[GBd]>.[DG])!mf! [CF]2 z!f! [DAc] | ([DB]>[EA])!mf! (A3 G) | G4 || z2 |!p! e2 B2 z B | %51
 c2 c2 z F | ^D2 B2 z A | G2 G2 z [EA] | A2 ^G2 z [EB] | c2 c2 z c | (cB) B2 z [EG] | ^A6 | %58
 ^c2 ^A4 | B2 B2 z B | B2- ^A3 B | B4 z!f! .[GBd] || %62
V:3
 x5 d || [DG]2 D2 x [EG] | [A,D]2 [G,B,]2 x G, | [G,C]2 [G,B,]2 x [DA] | [DG]2 [DF]2 x d | %5
 [EG]2 [DG]2 z [DF] | [DG]2 [DG]2 z [DG] | [EG]2 [DG]2 z [DF] | [DG]4 x G | [DG]2 D2 x E | %10
 D2 B,2 x D | C2 B,2 x A | G2 F2 x D | C2 E2 x C | D2 D2 x D | E2 G2 x d | E2 x3 E | [xD]2 D3 D | %18
 A,2 F,2 A,D | D2 (D2 ^C2) | D4 x [DA] | [DG]2 D2 x e | [A,D]2 [G,B,]2 x G, | %23
 [G,C]2 [G,B,]2 x [DA] | [DG]2 [DF]2 x [DF] | x6 | x5 B, | C2 D2 x F | F2 D2 x [CF] | G2 D2 x D | %30
 C2 E2 x [C^F] | D2 D3 [CE] | [A,D]2 [DF]2 x [DG] | E2 E3 [DF] | [B,E]2 [CE]2 x [EG] | %35
 [DA]2 [DG]2 A,2 | x6 | [B,D]2 [A,D]4 | [B,D]4 x d | G2 E2 x E | x6 | E2 E2 x [DF] | [DF]2 D2 x G | %43
 [DG]2 [B,D]2 [CF]2 | B,4 x2 | x6 | x6 | G2 [DG]2 [CF]2 | B,4 || x2 | G2 E2 x [B,E] | E2 E2 x A, | %52
 B,2 F2 x [B,F] | [B,E]2 [B,E]2 x e | [D=F]2 [B,E]2 x e | [EA]2 [E=G]2 x [DA] | [DG]2 [DG]2 x ^c | %57
 [^CF]6 | [^CF]2 [CF^A]4 | [B,F]2 [B,E]2 x [B,E] | D2 ^C4 | [DF]4 x2 || %62
V:4
!f! [G,,,G,,]2 z2 z [G,,G,] || [G,,G,]2 [B,,,B,,]2 z [C,,C,] | ([D,,D,]2 [E,,E,]2) z [B,,,B,,] | %3
 [C,,C,]2 [G,,,G,,]2 z [F,,F,] | (.[G,,G,]2 .[D,,D,]2) z [B,,,B,,] | %5
 [C,,C,]2 [D,,D,]2 z [D,,,D,,] | [G,,,G,,]2 [G,,G,]2 z [B,,,B,,] | [C,,C,]2 [D,,D,]2 z [D,,,D,,] | %8
 [G,,,G,,]4 z G, | G,2 G,2 z C | A,2 G,2 z G, | G,2 G,2 z F, | D2 D2 z G, | G,2 A,2 z C, | %14
 G,2 G,2 z F, | B,2 B,2 z B, | A,2 z2 z A, | A,2 A,3 G, | E,2 D,2 z (G, | F,G, A,2 G,2) | %20
 F,4 z [F,,F,] | [G,,G,]2 [B,,,B,,]2 z [C,,C,] | (.[D,,D,]2 .[E,,E,]2) z [B,,,B,,] | %23
 (.[C,,C,]2 .[G,,,G,,]2) z [F,,F,] | (.[G,,G,]2 .[D,,D,]2) z D, | C,2 C2 z C, | B,,2 B,2 z E, | %27
 A,2 F,2 z C | A,2 G,,2 z A,, | G,2 G,2 z G, | G,2 C2 z (A,, | B,,A,, B,,3) C, | %32
 (.D,2 .D,,2) z B,, | (C,B,, C,3) D, | (.E,2 .A,2) z G, | F,2 G,2 C,2 | F,2 G,2 z C, | D,2 D,,4 | %38
 G,,4 z F, | B,2 C2 z C | F,2 G,2 z G,, | C,2 C2 z C | C2 B,2 z [C,C] | B,,2 D,2 D,,2 | %44
 G,,4 z [E,E] | (.[D,D]>.[D,,D,]) [C,,C,]3 .[C,C] | (.[B,,B,]>.[B,,,B,,]) [A,,,A,,]2 z [F,,F,] | %47
 ([G,,G,]>[C,,C,]) [D,,D,]2 [D,,,D,,]2 |"_Fine" [G,,,G,,]4 || z2 | B,2 B,2 z G,, | A,2 C2 z F, | %52
 F,2 B,2 z2 | E,2 E,,2 z C, | D,2 E,2 z ^G, | A,2 E,2 z F, | G,2 G,,2 z E, | F,6 | ^A,,2 F,3 E, | %59
 D,2 G,2 z G,, | F,,6 | B,,4 z"_Dal Segno" .[G,,G,] || %62
V:5
 x6 || x6 | x6 | x6 | x6 | x6 | x6 | x6 | x5 B, | G,2 B,,2 x C, | (.D,2 .E,2) x B,, | %11
 (.C,2 .G,,2) x D | (.G,2 .D,2) x B,, | (.C,2 .A,,2) x E, | (.B,,2 .G,,2) x A, | %15
 (.E,2 .G,,2) x G, | A,2 x3 ^C, | D,2 F,,3 G,, | A,,2 B,,2 (F,,G,, | A,,B,, A,,4) | D,4 x2 | x6 | %22
 x6 | x6 | x6 | x6 | x5 G, | A,,2 D,2 x D, | G,2 x4 | B,,2 B,,2 x B,, | C,2 C2 x2 | x6 | x6 | x6 | %34
 x6 | x6 | (.C,2 .B,,2) x2 | x6 | x5 A, | E,2 A,2 x2 | x6 | x6 | x6 | x6 | x6 | x6 | x6 | x6 | %48
 x4 || x2 | E,2 G,2 x G,, | A,,2 A,2 x C, | B,,2 ^D,2 x D, | x6 | x6 | x6 | x6 | x6 | x6 | x6 | %60
 x6 | x6 || %62
V:6
 x6 || x6 | x6 | x6 | x6 | x6 | x6 | x6 | x6 | x6 | x6 | x6 | x6 | x6 | x6 | x6 | x6 | x6 | x6 | %19
 x6 | x6 | x6 | x6 | x6 | x6 | x6 | x6 | x6 | x6 | x6 | x6 | x6 | x6 | x6 | x6 | x6 | x6 | x6 | %38
 x6 | x6 | x6 | x6 | x6 | x6 | x6 | x6 | x6 | x6 | x4 || x2 | x6 | x6 | x6 | x6 | x6 | x6 | x6 | %57
 x6 | x6 | x6 | F6 | x6 || %62

